!!! OTL: Berkowitz581
!!! Chapter: 1
!!! Section: V
!!! Page: 147
!!! Mode: 
!!! Encoder: CD
**kern
*staff1
=1-
*clefF4
*k[]
*C:
*M4/4
4r
4B\
4B\
4B\
=2
4.G\
8E-\
4F#\
[4C#/
=3
8C#/L]
8BB/
8D/
8F/J
4.B-\
8A-\
=4
4d-\
4A-\
4r
4G\
=5
8A\L
8c\J
4B\
4.A-\
8E-\
=6
!!linebreak:original
4F\
4r
8r
8E-\L
8G\
8B\J
=7
8G#\L
8B\J
4B-\
2G#\
=8
2E\
8r
8E\L
8G#\
8E\J
=9
4.G\
8F#\
4D#\
4C/
=10
8r
8E\L
8G\
8B\J
4.B-\
8d-\
=11
!!linebreak:original
4A\
8r
8c\
4.A-\
8B\
=12
2G\
2D\
=13
4r
4C#/
4C#/
4C#/
=14
2E\
2G\
=15
2.E-\
4r
==
*-
